X:1
T:Weaver’s Rant,The
L:1/16
M:2/4
I:linebreak $
K:F
V:1 treble 
V:1
 F2 | cdcB AcBA | GBAG FEFG | Acde fcBA | GFED C2 AB | cdcB Agfe |$ dedc =Bagf | ec=Bc afed | %8
 c2 C4 :: cd | _efed cdcB | ABAG ^F_edc |$ Bbag dg^fa | g2 G4 dc | BAGF E2cd | cBAG Afef | %16
 Bgfg C2e2 | f2 F4 :| %18
